ui/StatusQ/src/assets/img/icons/check-activity.svg

<svg fill="none" height="14" viewBox="0 0 20 14" width="20" xmlns="http://www.w3.org/2000/svg"><path clip-rule="evenodd" d="m18.776.570551c.3665.335873.3912.905179.0553 1.271589l-10.56985 11.53076c-.16588.181-.39847.2863-.64389.2917-.24542.0053-.48237-.0899-.65595-.2634l-5.76539-5.76542c-.351471-.35147-.351471-.92132 0-1.27279.35147-.35148.92132-.35148 1.27279 0l4.73147 4.73151c.20129.2012.52977.1941.72213-.0157l9.58189-10.452962c.3358-.366408.9051-.39116 1.2715-.055287z" fill="#4360df" fill-rule="evenodd"/></svg>

<svg width="20" height="14" viewBox="0 0 20 14" fill="none" xmlns="http://www.w3.org/2000/svg">
<path fill-rule="evenodd" clip-rule="evenodd" d="M18.776 0.570551C19.1425 0.906424 19.1672 1.47573 18.8313 1.84214L8.26145 13.3729C8.09557 13.5539 7.86298 13.6592 7.61756 13.6646C7.37214 13.6699 7.13519 13.5747 6.96161 13.4012L1.19622 7.63578C0.844749 7.28431 0.844749 6.71446 1.19622 6.36299C1.54769 6.01151 2.11754 6.01151 2.46901 6.36299L7.20048 11.0945C7.40177 11.2957 7.73025 11.2886 7.92261 11.0788L17.5045 0.625838C17.8403 0.25943 18.4096 0.234678 18.776 0.570551Z" fill="#4360DF"/>
</svg>
